elementary-xfce/actions/16/stroke-to-path.svg

<?xml version="1.0" encoding="UTF-8" standalone="no"?>
<svg
   xmlns:dc="http://purl.org/dc/elements/1.1/"
   xmlns:cc="http://creativecommons.org/ns#"
   xmlns:rdf="http://www.w3.org/1999/02/22-rdf-syntax-ns#"
   xmlns:svg="http://www.w3.org/2000/svg"
   xmlns="http://www.w3.org/2000/svg"
   xmlns:xlink="http://www.w3.org/1999/xlink"
   version="1.0"
   width="16"
   height="16"
   id="svg8472">
  <defs
     id="defs8474">
    <linearGradient
       id="linearGradient6929">
      <stop
         id="stop6931"
         style="stop-color:#204a87;stop-opacity:0"
         offset="0" />
      <stop
         id="stop6939"
         style="stop-color:#204a87;stop-opacity:0.97647059"
         offset="0.14583333" />
      <stop
         id="stop6937"
         style="stop-color:#204a87;stop-opacity:0.95321637"
         offset="0.89322919" />
      <stop
         id="stop6933"
         style="stop-color:#204a87;stop-opacity:0"
         offset="1" />
    </linearGradient>
    <linearGradient
       id="linearGradient6957">
      <stop
         id="stop6959"
         style="stop-color:#ffffff;stop-opacity:0"
         offset="0" />
      <stop
         id="stop6961"
         style="stop-color:#ffffff;stop-opacity:0.97647059"
         offset="0.14583333" />
      <stop
         id="stop6963"
         style="stop-color:#ffffff;stop-opacity:0.95686275"
         offset="0.89322919" />
      <stop
         id="stop6965"
         style="stop-color:#ffffff;stop-opacity:0"
         offset="1" />
    </linearGradient>
    <linearGradient
       id="linearGradient6919">
      <stop
         id="stop6921"
         style="stop-color:#729fcf;stop-opacity:1"
         offset="0" />
      <stop
         id="stop6923"
         style="stop-color:#729fcf;stop-opacity:0"
         offset="1" />
    </linearGradient>
    <linearGradient
       id="linearGradient6911">
      <stop
         id="stop6913"
         style="stop-color:#729fcf;stop-opacity:1"
         offset="0" />
      <stop
         id="stop6915"
         style="stop-color:#729fcf;stop-opacity:0"
         offset="1" />
    </linearGradient>
    <linearGradient
       x1="394.99066"
       y1="441.95001"
       x2="415.97501"
       y2="420.99677"
       id="linearGradient9708"
       xlink:href="#linearGradient6957"
       gradientUnits="userSpaceOnUse"
       gradientTransform="matrix(0.6931841,0,0,0.6969486,-271.50067,-291.16796)" />
    <linearGradient
       x1="394.99066"
       y1="441.95001"
       x2="415.97501"
       y2="420.99677"
       id="linearGradient9711"
       xlink:href="#linearGradient6929"
       gradientUnits="userSpaceOnUse"
       gradientTransform="matrix(0.7507992,0,0,0.7519697,-295.43831,-315.45703)" />
    <linearGradient
       x1="402.52054"
       y1="441.95001"
       x2="415.51361"
       y2="428.54089"
       id="linearGradient9714"
       xlink:href="#linearGradient6929"
       gradientUnits="userSpaceOnUse"
       gradientTransform="matrix(0.754383,0,0,0.7688085,-297.09913,-322.89279)" />
    <linearGradient
       x1="402.52054"
       y1="441.95001"
       x2="415.51361"
       y2="428.54089"
       id="linearGradient9717"
       xlink:href="#linearGradient6957"
       gradientUnits="userSpaceOnUse"
       gradientTransform="matrix(0.8473141,0,0,0.8391184,-335.53787,-353.92881)" />
    <linearGradient
       x1="400.03662"
       y1="436.5304"
       x2="400.26517"
       y2="441.0397"
       id="linearGradient9720"
       xlink:href="#linearGradient6919"
       gradientUnits="userSpaceOnUse"
       gradientTransform="matrix(0.7206433,0,0,0.7205339,-283.51865,-302.20696)" />
    <linearGradient
       x1="410.81195"
       y1="424.76212"
       x2="415.20358"
       y2="424.73312"
       id="linearGradient9723"
       xlink:href="#linearGradient6911"
       gradientUnits="userSpaceOnUse"
       gradientTransform="matrix(0.7206433,0,0,0.7205339,-283.51865,-302.20696)" />
  </defs>
  <metadata
     id="metadata8477">
    <rdf:RDF>
      <cc:Work
         rdf:about="">
        <dc:format>image/svg+xml</dc:format>
        <dc:type
           rdf:resource="http://purl.org/dc/dcmitype/StillImage" />
        <dc:title>Stroke To Path</dc:title>
        <dc:date>2006-05-01</dc:date>
        <dc:creator>
          <cc:Agent>
            <dc:title>Lapo Calamandrei</dc:title>
          </cc:Agent>
        </dc:creator>
        <cc:license
           rdf:resource="http://creativecommons.org/licenses/GPL/2.0/" />
        <dc:subject>
          <rdf:Bag>
            <rdf:li>stroke</rdf:li>
            <rdf:li>line</rdf:li>
            <rdf:li>border</rdf:li>
            <rdf:li>convert</rdf:li>
            <rdf:li>path</rdf:li>
            <rdf:li>curve</rdf:li>
          </rdf:Bag>
        </dc:subject>
      </cc:Work>
      <cc:License
         rdf:about="http://creativecommons.org/licenses/GPL/2.0/">
        <cc:permits
           rdf:resource="http://web.resource.org/cc/Reproduction" />
        <cc:permits
           rdf:resource="http://web.resource.org/cc/Distribution" />
        <cc:requires
           rdf:resource="http://web.resource.org/cc/Notice" />
        <cc:permits
           rdf:resource="http://web.resource.org/cc/DerivativeWorks" />
        <cc:requires
           rdf:resource="http://web.resource.org/cc/ShareAlike" />
        <cc:requires
           rdf:resource="http://web.resource.org/cc/SourceCode" />
      </cc:License>
    </rdf:RDF>
  </metadata>
  <g
     id="layer1">
    <rect
       width="15.854153"
       height="15.851747"
       x="1.1354502"
       y="1.1378239"
       id="rect6840"
       style="fill:none;stroke:none" />
    <path
       d="m 15.886118,1.4980827 c -4.145335,0 -7.8827137,1.7698766 -10.5168884,4.5934079 L 8.9274059,9.649123 C 10.63435,7.7429661 13.103282,6.5418255 15.886118,6.5418255 l 0,-5.0437428 z"
       id="path6842"
       style="fill:url(#linearGradient9723);fill-opacity:1;stroke:none" />
    <path
       d="M 5.7295512,5.7312211 C 3.1259174,8.3362616 1.4957646,11.916508 1.4957719,15.863732 l 5.0445031,0 c 0,-2.589654 1.0373155,-4.912658 2.7249324,-6.5973912 L 5.7295512,5.7312211 z"
       id="path6899"
       style="fill:url(#linearGradient9720);fill-opacity:1;stroke:none" />
    <path
       d="M 16.5,5.6361361 C 10.399871,5.6361361 5.5129184,10.468284 5.5129184,16.5"
       id="path6967"
       style="opacity:0.50862068;fill:none;stroke:url(#linearGradient9717);stroke-width:0.99999982;stroke-linecap:square;stroke-linejoin:miter;stroke-miterlimit:4;stroke-opacity:1;stroke-dasharray:none;stroke-dashoffset:0" />
    <path
       d="m 16.328123,6.5441747 c -5.431083,0 -9.7820467,4.4272573 -9.7820467,9.9535803"
       id="path6941"
       style="fill:none;stroke:url(#linearGradient9714);stroke-width:1;stroke-linecap:square;stroke-linejoin:miter;stroke-miterlimit:4;stroke-opacity:1;stroke-dasharray:none;stroke-dashoffset:0" />
    <path
       d="m 1.4957647,16.5 c 0,-8.2510928 6.7531376,-15.0042378 15.0042363,-15.0042378"
       id="path6927"
       style="fill:none;stroke:url(#linearGradient9711);stroke-width:1;stroke-linecap:square;stroke-linejoin:miter;stroke-miterlimit:4;stroke-opacity:1;stroke-dasharray:none;stroke-dashoffset:0" />
    <path
       d="M 2.6471628,16.5 C 2.6471628,8.85263 8.8820786,2.5936069 16.5,2.5936069"
       id="path6953"
       style="opacity:0.50862068;fill:none;stroke:url(#linearGradient9708);stroke-width:1;stroke-linecap:square;stroke-linejoin:miter;stroke-miterlimit:4;stroke-opacity:1;stroke-dasharray:none;stroke-dashoffset:0" />
    <path
       d="M 11.375,2.4375 A 0.56255625,0.56255625 0 0 0 11.3125,2.46875 C 10.196802,2.860803 9.1316191,3.3859445 8.15625,4.03125 a 0.56255625,0.56255625 0 0 0 0.3125,1.03125 l 1.65625,0 A 0.56255625,0.56255625 0 0 0 9.9375,5.5 l 0,2.46875 a 0.56255625,0.56255625 0 0 0 0.875,0.46875 c 1.102507,-0.7602117 2.387036,-1.2752964 3.78125,-1.5 A 0.56255625,0.56255625 0 0 0 15.0625,6.375 l 0,-0.875 A 0.56255625,0.56255625 0 0 0 14.5,4.9375 l -2.625,0 A 0.56255625,0.56255625 0 0 0 12.0625,4.5 l 0,-1.5 A 0.56255625,0.56255625 0 0 0 11.375,2.4375 z m -7,5.46875 a 0.56255625,0.56255625 0 0 0 -0.34375,0.25 c -0.6404463,0.9855722 -1.1197927,2.04959 -1.5,3.15625 a 0.56255625,0.56255625 0 0 0 0.53125,0.75 l 1.4375,0 a 0.56255625,0.56255625 0 0 0 0.4375,-0.21875 l 0,2.65625 A 0.56255625,0.56255625 0 0 0 5.5,15.0625 l 0.9375,0 A 0.56255625,0.56255625 0 0 0 7,14.59375 C 7.2131781,13.19722 7.7146834,11.922681 8.46875,10.8125 A 0.56255625,0.56255625 0 0 0 8,9.9375 l -2.5,0 a 0.56255625,0.56255625 0 0 0 -0.4375,0.21875 l 0,-1.6875 A 0.56255625,0.56255625 0 0 0 4.375,7.90625 z"
       transform="translate(-0.21875,-0.34375)"
       id="path9751"
       style="opacity:0.47844831;fill:#ffffff;fill-opacity:1;stroke:#ffffff;stroke-width:1;stroke-linecap:square;stroke-linejoin:round;stroke-miterlimit:4;stroke-opacity:1;stroke-dasharray:none;stroke-dashoffset:0" />
    <g
       transform="matrix(1,0,0,0.9998532,-373.00002,-427.93525)"
       id="g6852">
      <path
         d="m 384.49997,428.49998 0,4 -3.99994,0 0,-4 3.99994,0 z"
         id="path6848"
         style="fill:#babdb6;fill-opacity:1;stroke:#888a85;stroke-width:1.00007367;stroke-linecap:round;stroke-linejoin:round;stroke-miterlimit:4;stroke-opacity:1" />
      <path
         d="m 383.49996,429.49998 0,2 -2.00008,0 0,-2 2.00008,0 z"
         id="path6850"
         style="fill:none;stroke:#ffffff;stroke-width:1.00007391;stroke-linecap:round;stroke-linejoin:miter;stroke-miterlimit:4;stroke-opacity:1" />
    </g>
    <g
       transform="matrix(1,0,0,0.9998532,-368.99999,-422.93395)"
       id="g6859">
      <path
         d="m 383.49997,428.49998 0,4 -3.99994,0 0,-4 3.99994,0 z"
         id="path6861"
         style="fill:#babdb6;fill-opacity:1;stroke:#888a85;stroke-width:1.00007367;stroke-linecap:round;stroke-linejoin:round;stroke-miterlimit:4;stroke-opacity:1" />
      <path
         d="m 382.49996,429.49998 0,2 -2.00008,0 0,-2 2.00008,0 z"
         id="path6863"
         style="fill:none;stroke:#ffffff;stroke-width:1.00007391;stroke-linecap:round;stroke-linejoin:miter;stroke-miterlimit:4;stroke-opacity:1" />
    </g>
    <g
       transform="matrix(1,0,0,0.9998532,-374.99999,-417.93483)"
       id="g6865">
      <path
         d="m 389.5,435.50001 4,0 0,3.99994 -4,0 0,-3.99994 z"
         transform="matrix(0,1,-1,0,819.99998,38.99998)"
         id="path6867"
         style="fill:#babdb6;fill-opacity:1;stroke:#888a85;stroke-width:1.00007367;stroke-linecap:round;stroke-linejoin:round;stroke-miterlimit:4;stroke-opacity:1" />
      <path
         d="m 390.5,436.50002 2,0 0,2.00008 -2,0 0,-2.00008 z"
         transform="matrix(0,1,-1,0,819.99998,38.99998)"
         id="path6869"
         style="fill:none;stroke:#ffffff;stroke-width:1.00007391;stroke-linecap:round;stroke-linejoin:miter;stroke-miterlimit:4;stroke-opacity:1" />
    </g>
    <g
       transform="matrix(1,0,0,0.9998532,-379.99999,-420.93586)"
       id="g6871">
      <path
         d="m 389.5,435.50001 4,0 0,3.99994 -4,0 0,-3.99994 z"
         transform="matrix(0,1,-1,0,819.99998,38.99998)"
         id="path6873"
         style="fill:#babdb6;fill-opacity:1;stroke:#888a85;stroke-width:1.00007367;stroke-linecap:round;stroke-linejoin:round;stroke-miterlimit:4;stroke-opacity:1" />
      <path
         d="m 390.5,436.50002 2,0 0,2.00008 -2,0 0,-2.00008 z"
         transform="matrix(0,1,-1,0,819.99998,38.99998)"
         id="path6876"
         style="fill:none;stroke:#ffffff;stroke-width:1.00007391;stroke-linecap:round;stroke-linejoin:miter;stroke-miterlimit:4;stroke-opacity:1" />
    </g>
  </g>
</svg>

<?xml version="1.0" encoding="UTF-8" standalone="no"?>
<svg
   xmlns:dc="http://purl.org/dc/elements/1.1/"
   xmlns:cc="http://creativecommons.org/ns#"
   xmlns:rdf="http://www.w3.org/1999/02/22-rdf-syntax-ns#"
   xmlns:svg="http://www.w3.org/2000/svg"
   xmlns="http://www.w3.org/2000/svg"
   xmlns:xlink="http://www.w3.org/1999/xlink"
   width="16"
   height="16"
   id="svg8472"
   version="1.0">
  <defs
     id="defs8474">
    <linearGradient
       id="linearGradient6929">
      <stop
         style="stop-color:#204a87;stop-opacity:0;"
         offset="0"
         id="stop6931" />
      <stop
         id="stop6939"
         offset="0.14583333"
         style="stop-color:#204a87;stop-opacity:0.97647059;" />
      <stop
         id="stop6937"
         offset="0.89322919"
         style="stop-color:#204a87;stop-opacity:0.95321637;" />
      <stop
         style="stop-color:#204a87;stop-opacity:0;"
         offset="1"
         id="stop6933" />
    </linearGradient>
    <linearGradient
       id="linearGradient6957">
      <stop
         id="stop6959"
         offset="0"
         style="stop-color:#ffffff;stop-opacity:0" />
      <stop
         style="stop-color:#ffffff;stop-opacity:0.97647059;"
         offset="0.14583333"
         id="stop6961" />
      <stop
         style="stop-color:#ffffff;stop-opacity:0.95686275;"
         offset="0.89322919"
         id="stop6963" />
      <stop
         id="stop6965"
         offset="1"
         style="stop-color:#ffffff;stop-opacity:0" />
    </linearGradient>
    <linearGradient
       id="linearGradient6919">
      <stop
         style="stop-color:#729fcf;stop-opacity:1"
         offset="0"
         id="stop6921" />
      <stop
         style="stop-color:#729fcf;stop-opacity:0"
         offset="1"
         id="stop6923" />
    </linearGradient>
    <linearGradient
       id="linearGradient6911">
      <stop
         style="stop-color:#729fcf;stop-opacity:1"
         offset="0"
         id="stop6913" />
      <stop
         style="stop-color:#729fcf;stop-opacity:0"
         offset="1"
         id="stop6915" />
    </linearGradient>
    <linearGradient
       xlink:href="#linearGradient6957"
       id="linearGradient9708"
       gradientUnits="userSpaceOnUse"
       gradientTransform="matrix(0.6931841,0,0,0.6969486,-271.50067,-291.16796)"
       x1="394.99066"
       y1="441.95001"
       x2="415.97501"
       y2="420.99677" />
    <linearGradient
       xlink:href="#linearGradient6929"
       id="linearGradient9711"
       gradientUnits="userSpaceOnUse"
       gradientTransform="matrix(0.7507992,0,0,0.7519697,-295.43831,-315.45703)"
       x1="394.99066"
       y1="441.95001"
       x2="415.97501"
       y2="420.99677" />
    <linearGradient
       xlink:href="#linearGradient6929"
       id="linearGradient9714"
       gradientUnits="userSpaceOnUse"
       gradientTransform="matrix(0.754383,0,0,0.7688085,-297.09913,-322.89279)"
       x1="402.52054"
       y1="441.95001"
       x2="415.51361"
       y2="428.54089" />
    <linearGradient
       xlink:href="#linearGradient6957"
       id="linearGradient9717"
       gradientUnits="userSpaceOnUse"
       gradientTransform="matrix(0.8473141,0,0,0.8391184,-335.53787,-353.92881)"
       x1="402.52054"
       y1="441.95001"
       x2="415.51361"
       y2="428.54089" />
    <linearGradient
       xlink:href="#linearGradient6919"
       id="linearGradient9720"
       gradientUnits="userSpaceOnUse"
       gradientTransform="matrix(0.7206433,0,0,0.7205339,-283.51865,-302.20696)"
       x1="400.03662"
       y1="436.5304"
       x2="400.26517"
       y2="441.0397" />
    <linearGradient
       xlink:href="#linearGradient6911"
       id="linearGradient9723"
       gradientUnits="userSpaceOnUse"
       gradientTransform="matrix(0.7206433,0,0,0.7205339,-283.51865,-302.20696)"
       x1="410.81195"
       y1="424.76212"
       x2="415.20358"
       y2="424.73312" />
  </defs>
  <metadata
     id="metadata8477">
    <rdf:RDF>
      <cc:Work
         rdf:about="">
        <dc:format>image/svg+xml</dc:format>
        <dc:type
           rdf:resource="http://purl.org/dc/dcmitype/StillImage" />
        <dc:title>Stroke To Path</dc:title>
        <dc:date>2006-05-01</dc:date>
        <dc:creator>
          <cc:Agent>
            <dc:title>Lapo Calamandrei</dc:title>
          </cc:Agent>
        </dc:creator>
        <cc:license
           rdf:resource="http://creativecommons.org/licenses/GPL/2.0/" />
        <dc:subject>
          <rdf:Bag>
            <rdf:li>stroke</rdf:li>
            <rdf:li>line</rdf:li>
            <rdf:li>border</rdf:li>
            <rdf:li>convert</rdf:li>
            <rdf:li>path</rdf:li>
            <rdf:li>curve</rdf:li>
          </rdf:Bag>
        </dc:subject>
      </cc:Work>
      <cc:License
         rdf:about="http://creativecommons.org/licenses/GPL/2.0/">
        <cc:permits
           rdf:resource="http://web.resource.org/cc/Reproduction" />
        <cc:permits
           rdf:resource="http://web.resource.org/cc/Distribution" />
        <cc:requires
           rdf:resource="http://web.resource.org/cc/Notice" />
        <cc:permits
           rdf:resource="http://web.resource.org/cc/DerivativeWorks" />
        <cc:requires
           rdf:resource="http://web.resource.org/cc/ShareAlike" />
        <cc:requires
           rdf:resource="http://web.resource.org/cc/SourceCode" />
      </cc:License>
    </rdf:RDF>
  </metadata>
  <g
     id="layer1">
    <rect
       y="1.1378239"
       x="1.1354502"
       height="15.851747"
       width="15.854153"
       id="rect6840"
       style="fill:none;fill-opacity:1;stroke:none;stroke-width:1;stroke-linecap:round;stroke-linejoin:miter;stroke-miterlimit:4;stroke-dasharray:none;stroke-opacity:1" />
    <path
       style="fill:url(#linearGradient9723);fill-opacity:1;stroke:none;stroke-width:1;stroke-linecap:square;stroke-linejoin:miter;stroke-miterlimit:4;stroke-dasharray:none;stroke-dashoffset:0;stroke-opacity:1"
       d="M 15.886118,1.4980827 C 11.740783,1.4980827 8.0034043,3.2679593 5.3692296,6.0914906 L 8.9274059,9.649123 C 10.63435,7.7429661 13.103282,6.5418255 15.886118,6.5418255 L 15.886118,1.4980827 z "
       id="path6842" />
    <path
       style="fill:url(#linearGradient9720);fill-opacity:1;stroke:none;stroke-width:1;stroke-linecap:square;stroke-linejoin:miter;stroke-miterlimit:4;stroke-dasharray:none;stroke-dashoffset:0;stroke-opacity:1"
       d="M 5.7295512,5.7312211 C 3.1259174,8.3362616 1.4957646,11.916508 1.4957719,15.863732 L 6.540275,15.863732 C 6.540275,13.274078 7.5775905,10.951074 9.2652074,9.2663408 L 5.7295512,5.7312211 z "
       id="path6899" />
    <path
       style="opacity:0.50862068;fill:none;fill-opacity:1;stroke:url(#linearGradient9717);stroke-width:0.99999982;stroke-linecap:square;stroke-linejoin:miter;stroke-miterlimit:4;stroke-dasharray:none;stroke-dashoffset:0;stroke-opacity:1"
       d="M 16.5,5.6361361 C 10.399871,5.6361361 5.5129184,10.468284 5.5129184,16.5"
       id="path6967" />
    <path
       style="fill:none;fill-opacity:1;stroke:url(#linearGradient9714);stroke-width:1;stroke-linecap:square;stroke-linejoin:miter;stroke-miterlimit:4;stroke-dasharray:none;stroke-dashoffset:0;stroke-opacity:1"
       d="M 16.328123,6.5441747 C 10.89704,6.5441747 6.5460763,10.971432 6.5460763,16.497755"
       id="path6941" />
    <path
       style="fill:none;fill-opacity:1;stroke:url(#linearGradient9711);stroke-width:1;stroke-linecap:square;stroke-linejoin:miter;stroke-miterlimit:4;stroke-dasharray:none;stroke-dashoffset:0;stroke-opacity:1"
       d="M 1.4957647,16.5 C 1.4957647,8.2489072 8.2489023,1.4957622 16.500001,1.4957622"
       id="path6927" />
    <path
       style="opacity:0.50862068;fill:none;fill-opacity:1;stroke:url(#linearGradient9708);stroke-width:1;stroke-linecap:square;stroke-linejoin:miter;stroke-miterlimit:4;stroke-dasharray:none;stroke-dashoffset:0;stroke-opacity:1"
       d="M 2.6471628,16.5 C 2.6471628,8.85263 8.8820786,2.5936069 16.5,2.5936069"
       id="path6953" />
    <path
       style="fill:#ffffff;fill-opacity:1;stroke:#ffffff;stroke-width:1;stroke-linecap:square;stroke-linejoin:round;stroke-miterlimit:4;stroke-dasharray:none;stroke-dashoffset:0;stroke-opacity:1;opacity:0.47844828"
       id="path9751"
       d="M 11.375,2.4375 C 11.353539,2.4466115 11.332666,2.4570483 11.3125,2.46875 C 10.196802,2.860803 9.1316191,3.3859445 8.15625,4.03125 C 7.9493258,4.1686052 7.8569604,4.4254016 7.9289875,4.6630909 C 8.0010145,4.9007802 8.2203879,5.0631104 8.46875,5.0625 L 10.125,5.0625 C 10.000844,5.1734059 9.9321863,5.333607 9.9375,5.5 L 9.9375,7.96875 C 9.9371536,8.1764713 10.051302,8.3674796 10.234404,8.4655702 C 10.417507,8.5636608 10.639762,8.5528688 10.8125,8.4375 C 11.915007,7.6772883 13.199536,7.1622036 14.59375,6.9375 C 14.867339,6.8912587 15.066353,6.6524428 15.0625,6.375 L 15.0625,5.5 C 15.062469,5.1893527 14.810647,4.9375311 14.5,4.9375 L 11.875,4.9375 C 11.999156,4.8265941 12.067814,4.666393 12.0625,4.5 L 12.0625,3 C 12.066832,2.8264025 11.99075,2.660534 11.856351,2.5505714 C 11.721952,2.4406087 11.544302,2.398878 11.375,2.4375 z M 4.375,7.90625 C 4.2321325,7.9414238 4.1087313,8.0311702 4.03125,8.15625 C 3.3908037,9.1418222 2.9114573,10.20584 2.53125,11.3125 C 2.4703542,11.484816 2.4969614,11.675975 2.6025997,11.825112 C 2.7082381,11.974248 2.8797404,12.062773 3.0625,12.0625 L 4.5,12.0625 C 4.6715616,12.060117 4.8326566,11.979569 4.9375,11.84375 L 4.9375,14.5 C 4.9375311,14.810647 5.1893527,15.062469 5.5,15.0625 L 6.4375,15.0625 C 6.7149428,15.066353 6.9537587,14.867339 7,14.59375 C 7.2131781,13.19722 7.7146834,11.922681 8.46875,10.8125 C 8.5841188,10.639762 8.5949108,10.417507 8.4968202,10.234404 C 8.3987296,10.051302 8.2077213,9.9371536 8,9.9375 L 5.5,9.9375 C 5.3284384,9.9398831 5.1673434,10.020431 5.0625,10.15625 L 5.0625,8.46875 C 5.0668321,8.2951525 4.9907496,8.129284 4.8563507,8.0193214 C 4.7219519,7.9093587 4.544302,7.867628 4.375,7.90625 L 4.375,7.90625 z "
       transform="translate(-0.21875,-0.34375)" />
    <g
       id="g6852"
       transform="matrix(1,0,0,0.9998532,-373.00002,-427.93525)">
      <path
         id="path6848"
         d="M 384.49997,428.49998 L 384.49997,432.49998 L 380.50003,432.49998 L 380.50003,428.49998 L 384.49997,428.49998 z "
         style="opacity:1;fill:#babdb6;fill-opacity:1;stroke:#888a85;stroke-width:1.00007367;stroke-linecap:round;stroke-linejoin:round;stroke-miterlimit:4;stroke-opacity:1" />
      <path
         style="opacity:1;fill:none;fill-opacity:1;stroke:#ffffff;stroke-width:1.00007391;stroke-linecap:round;stroke-linejoin:miter;stroke-miterlimit:4;stroke-opacity:1"
         d="M 383.49996,429.49998 L 383.49996,431.49998 L 381.49988,431.49998 L 381.49988,429.49998 L 383.49996,429.49998 z "
         id="path6850" />
    </g>
    <g
       id="g6859"
       transform="matrix(1,0,0,0.9998532,-368.99999,-422.93395)">
      <path
         id="path6861"
         d="M 383.49997,428.49998 L 383.49997,432.49998 L 379.50003,432.49998 L 379.50003,428.49998 L 383.49997,428.49998 z "
         style="opacity:1;fill:#babdb6;fill-opacity:1;stroke:#888a85;stroke-width:1.00007367;stroke-linecap:round;stroke-linejoin:round;stroke-miterlimit:4;stroke-opacity:1" />
      <path
         style="opacity:1;fill:none;fill-opacity:1;stroke:#ffffff;stroke-width:1.00007391;stroke-linecap:round;stroke-linejoin:miter;stroke-miterlimit:4;stroke-opacity:1"
         d="M 382.49996,429.49998 L 382.49996,431.49998 L 380.49988,431.49998 L 380.49988,429.49998 L 382.49996,429.49998 z "
         id="path6863" />
    </g>
    <g
       id="g6865"
       transform="matrix(1,0,0,0.9998532,-374.99999,-417.93483)">
      <path
         id="path6867"
         d="M 389.5,435.50001 L 393.5,435.50001 L 393.5,439.49995 L 389.5,439.49995 L 389.5,435.50001 z "
         style="opacity:1;fill:#babdb6;fill-opacity:1;stroke:#888a85;stroke-width:1.00007367;stroke-linecap:round;stroke-linejoin:round;stroke-miterlimit:4;stroke-opacity:1"
         transform="matrix(0,1,-1,0,819.99998,38.99998)" />
      <path
         style="opacity:1;fill:none;fill-opacity:1;stroke:#ffffff;stroke-width:1.00007391;stroke-linecap:round;stroke-linejoin:miter;stroke-miterlimit:4;stroke-opacity:1"
         d="M 390.5,436.50002 L 392.5,436.50002 L 392.5,438.5001 L 390.5,438.5001 L 390.5,436.50002 z "
         id="path6869"
         transform="matrix(0,1,-1,0,819.99998,38.99998)" />
    </g>
    <g
       id="g6871"
       transform="matrix(1,0,0,0.9998532,-379.99999,-420.93586)">
      <path
         id="path6873"
         d="M 389.5,435.50001 L 393.5,435.50001 L 393.5,439.49995 L 389.5,439.49995 L 389.5,435.50001 z "
         style="opacity:1;fill:#babdb6;fill-opacity:1;stroke:#888a85;stroke-width:1.00007367;stroke-linecap:round;stroke-linejoin:round;stroke-miterlimit:4;stroke-opacity:1"
         transform="matrix(0,1,-1,0,819.99998,38.99998)" />
      <path
         style="opacity:1;fill:none;fill-opacity:1;stroke:#ffffff;stroke-width:1.00007391;stroke-linecap:round;stroke-linejoin:miter;stroke-miterlimit:4;stroke-opacity:1"
         d="M 390.5,436.50002 L 392.5,436.50002 L 392.5,438.5001 L 390.5,438.5001 L 390.5,436.50002 z "
         id="path6876"
         transform="matrix(0,1,-1,0,819.99998,38.99998)" />
    </g>
  </g>
</svg>
